ui/StatusQ/src/assets/img/icons/location.svg

<svg fill="none" height="24" viewBox="0 0 24 24" width="24" xmlns="http://www.w3.org/2000/svg"><g clip-rule="evenodd" fill="#000" fill-rule="evenodd"><path d="m15 10c0 1.6569-1.3431 3-3 3s-3-1.3431-3-3c0-1.65685 1.3431-3 3-3s3 1.34315 3 3zm-1.5 0c0 .8284-.6716 1.5-1.5 1.5s-1.5-.6716-1.5-1.5c0-.82843.6716-1.5 1.5-1.5s1.5.67157 1.5 1.5z"/><path d="m11.2346 21.7791c-1.33293-1.1343-7.2346-6.4567-7.2346-11.7791 0-4.41828 3.58172-8 8-8 4.4183 0 8 3.58172 8 8 0 5.3224-5.9017 10.6448-7.2346 11.7791-.173.1471-.3891.2209-.6162.2209h-.2984c-.2271 0-.4432-.0738-.6162-.2209zm4.4584-5.2328c-1.2233 1.5926-2.5519 2.8848-3.3668 3.622-.1856.1678-.4668.1678-.6524 0-.8149-.7372-2.14346-2.0294-3.36678-3.622-1.58561-2.0642-2.80702-4.3931-2.80702-6.5463 0-3.58985 2.91015-6.5 6.5-6.5 3.5899 0 6.5 2.91015 6.5 6.5 0 2.1532-1.2214 4.4821-2.807 6.5463z"/></g></svg>

<svg width="24" height="24" viewBox="0 0 24 24" fill="none" xmlns="http://www.w3.org/2000/svg">
<path fill-rule="evenodd" clip-rule="evenodd" d="M15 10C15 11.6569 13.6569 13 12 13C10.3431 13 9 11.6569 9 10C9 8.34315 10.3431 7 12 7C13.6569 7 15 8.34315 15 10ZM13.5 10C13.5 10.8284 12.8284 11.5 12 11.5C11.1716 11.5 10.5 10.8284 10.5 10C10.5 9.17157 11.1716 8.5 12 8.5C12.8284 8.5 13.5 9.17157 13.5 10Z" fill="black"/>
<path fill-rule="evenodd" clip-rule="evenodd" d="M11.2346 21.7791C9.90167 20.6448 4 15.3224 4 10C4 5.58172 7.58172 2 12 2C16.4183 2 20 5.58172 20 10C20 15.3224 14.0983 20.6448 12.7654 21.7791C12.5924 21.9262 12.3763 22 12.1492 22H11.8508C11.6237 22 11.4076 21.9262 11.2346 21.7791ZM15.693 16.5463C14.4697 18.1389 13.1411 19.4311 12.3262 20.1683C12.1406 20.3361 11.8594 20.3361 11.6738 20.1683C10.8589 19.4311 9.53034 18.1389 8.30702 16.5463C6.72141 14.4821 5.5 12.1532 5.5 10C5.5 6.41015 8.41015 3.5 12 3.5C15.5899 3.5 18.5 6.41015 18.5 10C18.5 12.1532 17.2786 14.4821 15.693 16.5463Z" fill="black"/>
</svg>
